extensions/rtl/assets/delivery-svg.svg

<svg width="68" height="68" viewBox="0 0 68 68" fill="none" xmlns="http://www.w3.org/2000/svg">
<path d="M0.5 34C0.5 15.4985 15.4985 0.5 34 0.5C52.5015 0.5 67.5 15.4985 67.5 34C67.5 52.5015 52.5015 67.5 34 67.5C15.4985 67.5 0.5 52.5015 0.5 34Z" stroke="#C6C6C6"/>
<path d="M41.5 46C43.1569 46 44.5 44.6569 44.5 43C44.5 41.3431 43.1569 40 41.5 40C39.8431 40 38.5 41.3431 38.5 43C38.5 44.6569 39.8431 46 41.5 46Z" stroke="#0D0D0D" stroke-width="1.5"/>
<path d="M26.5 46C28.1569 46 29.5 44.6569 29.5 43C29.5 41.3431 28.1569 40 26.5 40C24.8431 40 23.5 41.3431 23.5 43C23.5 44.6569 24.8431 46 26.5 46Z" stroke="#0D0D0D" stroke-width="1.5"/>
<path d="M23.5 42.9586C21.8549 42.8767 20.8287 42.6319 20.0983 41.9017C19.368 41.1714 19.1233 40.1451 19.0413 38.5M29.5 43H38.5M44.5 42.9586C46.1451 42.8767 47.1714 42.6319 47.9017 41.9017C49 40.8033 49 39.0355 49 35.5V32.5H41.95C40.8333 32.5 40.2748 32.5 39.823 32.3532C38.9097 32.0565 38.1936 31.3404 37.8969 30.427C37.75 29.9752 37.75 29.4168 37.75 28.3C37.75 26.6248 37.75 25.7873 37.5298 25.1094C37.0846 23.7395 36.0106 22.6654 34.6407 22.2202C33.9628 22 33.1252 22 31.45 22H19" stroke="#0D0D0D" stroke-width="1.5" stroke-linecap="round" stroke-linejoin="round"/>
<path d="M19 28H28" stroke="#0D0D0D" stroke-width="1.5" stroke-linecap="round" stroke-linejoin="round"/>
<path d="M19 32.5H25" stroke="#0D0D0D" stroke-width="1.5" stroke-linecap="round" stroke-linejoin="round"/>
<path d="M37.75 25H40.4818C42.6649 25 43.7563 25 44.6446 25.5306C45.5329 26.0611 46.0504 27.0222 47.0854 28.9443L49 32.5" stroke="#0D0D0D" stroke-width="1.5" stroke-linecap="round" stroke-linejoin="round"/>
</svg>

<svg xmlns="http://www.w3.org/2000/svg" width="68" height="68" fill="none"><path stroke="#C6C6C6" d="M.5 34C.5 15.499 15.499.5 34 .5 52.502.5 67.5 15.499 67.5 34c0 18.502-14.998 33.5-33.5 33.5C15.499 67.5.5 52.502.5 34Z"/><path stroke="#0D0D0D" stroke-width="1.5" d="M41.5 46a3 3 0 1 0 0-6 3 3 0 0 0 0 6ZM26.5 46a3 3 0 1 0 0-6 3 3 0 0 0 0 6Z"/><path stroke="#0D0D0D" stroke-linecap="round" stroke-linejoin="round" stroke-width="1.5" d="M23.5 42.959c-1.645-.082-2.671-.327-3.402-1.057-.73-.73-.975-1.757-1.057-3.402M29.5 43h9m6-.041c1.645-.082 2.671-.327 3.402-1.057C49 40.803 49 39.035 49 35.5v-3h-7.05c-1.117 0-1.675 0-2.127-.147a3 3 0 0 1-1.926-1.926c-.147-.452-.147-1.01-.147-2.127 0-1.675 0-2.513-.22-3.19a4.5 4.5 0 0 0-2.89-2.89c-.677-.22-1.515-.22-3.19-.22H19M19 28h9M19 32.5h6"/><path stroke="#0D0D0D" stroke-linecap="round" stroke-linejoin="round" stroke-width="1.5" d="M37.75 25h2.732c2.183 0 3.274 0 4.163.53.888.531 1.405 1.492 2.44 3.414L49 32.5"/></svg>
